X:1
T:Title
%%score ( 1 2 ) { 3 | 4 }
L:1/8
Q:1/4=100
M:6/8
K:Eb
V:1 treble nm="Grand Piano, Soprano"
V:2 treble 
V:3 bass nm="Choir Pad, South Bend, Ogden, 1885"
V:4 bass 
V:1
 [EG] [EG]2 [EG] [EG]2 | [FA] [GB]2 [GB][GB][Ac] | [Bd] [ce]2 [ce] [Bd]2 | %3
w: By~William~Augustine~Ogden,~1885 * * *|||
 [Ac] [GB]2- [GB]2- [GB]/ z/ | [GB] [Ac]2 [DF] [DF]2 | [Ac] [GB]2 [EG] [EG]2 | [Ge]df [Fe] [Fd]2 | %7
w: ||||
 [Ec] [DB]2- [DB]2- [DB]/ z/ | [FA] [EG]2 [EG] [EG]2 | [FA] [GB]2 [GB][GB][Ac] | %10
w: |||
 [Bd] [ce]2 [ce] [Bd]2 | [Ac] [GB]2- [GB]2- [GB]/ z/ | [GB] [Ac]2 [DF] [DF]2 | %13
w: |||
 [Ac] [GB]2 [EG] [Ge]2 | [FA][EG][GB] [FA] [EG]2 | [DF] E2- E3- | E3 z3 |] %17
w: ||||
V:2
 x6 | x6 | x6 | x6 | x6 | x6 | z F2 z3 | x6 | x6 | x6 | x6 | x6 | x6 | x6 | x6 | x6 | x6 |] %17
V:3
 B, B,2 B, B,2 | B,[K:treble] E2 E E2 | E E2 E E2 | E E2- E2- E/ z/ | E D2[K:bass] B, B,2 | %5
 D E2 B, B,2 | B,B,D C B,2 | =A, B,2- B,2- B,/ z/ | B, B,2 B, B,2 | B,[K:treble] E2 E E2 | %10
 E E2 E E2 | E E2- E2- E/ z/ | E D2[K:bass] B, B,2 | D E2 B,[K:treble] C2 | CB,E C[K:bass] B,2 | %15
 A, G,2- G,3- | G,3 z3 |] %17
V:4
 E, E,2 E, E,2 | E, E,2 E, E,2 | E, A,2 A, A,2 | A, E,2- E,2- E,/ z/ | E, B,,2 B,, B,,2 | %5
 B,, E,2 E, E,2 | E, F,2 F, F,2 | F, B,,2- B,,2- B,,/ z/ | B,, E,2 E, E,2 | E, E,2 E, E,2 | %10
 E, A,2 A, A,2 | A, E,2- E,2- E,/ z/ | E, B,,2 B,, B,,2 | B,, E,2 E, C,2 | F, G,2 .A,3 | %15
 B,, E,2- E,3- | E,3 z3 |] %17

